jsapp/svg-icons/qt-date-time-lock.svg

<svg height="642" viewBox="0 0 642 642" width="642" xmlns="http://www.w3.org/2000/svg"><path d="m388.32 264.5c7.800566-27.901743 9.134392-57.215137 3.9-85.71h51.56v-46.43c.021935-5.90586 4.80414-10.688065 10.71-10.71h35.71c5.90586.021935 10.688065 4.80414 10.71 10.71v46.43h42.86c23.668637.00552 42.85448 19.191363 42.86 42.86v32.14c-.021935 5.90586-4.80414 10.688065-10.71 10.71zm128.68 176.42h-.07c-.051328.046307-.09518.100279-.13.16v.2h.37v-.18c-.033603-.078212-.093834-.141986-.17-.18zm-461.64-227.71c0-82.842712 67.157288-150 150-150s150 67.157288 150 150-67.157288 150-150 150-150-67.157288-150-150zm139.72 25.88 40.52 30.07c4.173219 3.33612 10.260213 2.660285 13.6-1.51l12.1-15.12c3.33612-4.173219 2.660285-10.260213-1.51-13.6l-35.08-25.71v-87.1c0-2.567296-1.019854-5.029441-2.835206-6.844794-1.815353-1.815352-4.277498-2.835206-6.844794-2.835206h-19.35c-5.346116 0-9.68 4.333884-9.68 9.68v94.08c0 7.349034 3.341035 14.299512 9.08 18.89zm156.92 268.98c.023543-26.592068 15.79894-50.643855 40.18-61.26v-5.71c-.01358-46.124881 25.420729-88.494527 66.134966-110.170682 40.714238-21.676154 90.065719-19.122268 128.325034 6.640682v-33.78c-.021935-5.90586-4.80414-10.688065-10.71-10.71h-198.2c-30.22 65-96.12 110.14-172.38 110.14-6.313333 0-12.55-.306667-18.71-.92v133.63c.00552 23.668637 19.191363 42.85448 42.86 42.86h122.5zm290 0v107.14c0 14.795708-11.994292 26.79-26.79 26.79h-196.42c-14.795708 0-26.79-11.994292-26.79-26.79v-107.14c0-14.795708 11.994292-26.79 26.79-26.79h13.39v-40.17c0-46.844792 37.975208-84.82 84.82-84.82s84.82 37.975208 84.82 84.82v40.18h13.39c14.791804 0 26.784479 11.988197 26.79 26.78zm-97.91 52c0-14.746003-11.953997-26.7-26.7-26.7s-26.7 11.953997-26.7 26.7 11.953997 26.7 26.7 26.7c14.730396 0 26.677932-11.929621 26.7-26.66zm13.09-119c0-22.190801-17.989199-40.18-40.18-40.18s-40.18 17.989199-40.18 40.18v40.18h80.36z"/></svg>

<svg id="Layer_1" data-name="Layer 1" xmlns="http://www.w3.org/2000/svg" viewBox="0 0 642 642"><path d="M388.32,264.5a190.5,190.5,0,0,0,3.9-85.71h51.56V132.36a10.75,10.75,0,0,1,10.71-10.71h35.71a10.75,10.75,0,0,1,10.71,10.71v46.43h42.86a42.87,42.87,0,0,1,42.86,42.86v32.14a10.75,10.75,0,0,1-10.71,10.71ZM517,440.92h-.07a.67.67,0,0,0-.13.16v.2h.37v-.18A.36.36,0,0,0,517,440.92ZM205.36,363.21a150,150,0,1,1,150-150A150,150,0,0,1,205.36,363.21ZM195.08,239.09l40.52,30.07h0a9.68,9.68,0,0,0,13.6-1.51l12.1-15.12h0a9.68,9.68,0,0,0-1.51-13.6l-35.08-25.71v-87.1a9.68,9.68,0,0,0-9.68-9.68H195.68a9.68,9.68,0,0,0-9.68,9.68V220.2A24.19,24.19,0,0,0,195.08,239.09ZM352,508.07a66.88,66.88,0,0,1,40.18-61.26v-5.71A124.77,124.77,0,0,1,586.64,337.57V303.79a10.75,10.75,0,0,0-10.71-10.71H377.73c-30.22,65-96.12,110.14-172.38,110.14q-9.47,0-18.71-.92V535.93a42.87,42.87,0,0,0,42.86,42.86H352Zm290,0V615.21A26.79,26.79,0,0,1,615.21,642H418.79A26.79,26.79,0,0,1,392,615.21V508.07a26.79,26.79,0,0,1,26.79-26.79h13.39V441.11a84.82,84.82,0,0,1,169.64,0v40.18h13.39A26.79,26.79,0,0,1,642,508.07Zm-97.91,52a26.7,26.7,0,1,0-26.7,26.7A26.7,26.7,0,0,0,544.09,560.11Zm13.09-119a40.18,40.18,0,1,0-80.36,0v40.18h80.36Z"/></svg>
